src/22/panel/indicator-keyboard-Th.svg

<svg viewBox="0 0 22 22" xmlns="http://www.w3.org/2000/svg">
 <path style="fill:#ececec;fill-opacity:1" d="m 3 1 c -1.108 0 -2 0.892 -2 2 l 0 16 c 0 1.108 0.892 2 2 2 l 16 0 c 1.108 0 2 -0.892 2 -2 l 0 -16 c 0 -1.108 -0.892 -2 -2 -2 l -16 0 z m 10.451 4.801 l 0 3.236 c 0.167 -0.058 0.358 -0.109 0.574 -0.15 c 0.225 -0.042 0.445 -0.063 0.662 -0.063 c 0.525 0 0.959 0.077 1.301 0.227 c 0.35 0.142 0.63 0.345 0.838 0.611 c 0.208 0.258 0.354 0.571 0.438 0.937 c 0.092 0.367 0.137 0.775 0.137 1.225 l 0 3.676 l -1.512 0 l 0 -3.438 c 0 -0.35 -0.026 -0.645 -0.076 -0.887 c -0.042 -0.25 -0.116 -0.452 -0.225 -0.602 c -0.1 -0.158 -0.237 -0.269 -0.412 -0.336 c -0.175 -0.075 -0.392 -0.113 -0.65 -0.113 c -0.2 0 -0.403 0.021 -0.611 0.063 c -0.208 0.042 -0.363 0.08 -0.463 0.113 l 0 5.199 l -1.514 0 l 0 -9.449 l 1.514 -0.25 z m -9.539 1.037 l 6.912 0 l 0 1.361 l -2.662 0 l 0 7.301 l -1.588 0 l 0 -7.301 l -2.662 0 l 0 -1.361 z"/>
</svg>

<svg viewBox="0 0 22 22" xmlns="http://www.w3.org/2000/svg"><path d="M3 1c-1.108 0-2 .892-2 2v16c0 1.108.892 2 2 2h16c1.108 0 2-.892 2-2V3c0-1.108-.892-2-2-2H3zm10.451 4.801v3.236c.167-.058.358-.109.574-.15.225-.042.445-.063.662-.063.525 0 .959.077 1.301.227.35.142.63.345.838.611.208.258.354.571.438.937.092.367.137.775.137 1.225V15.5h-1.512v-3.438c0-.35-.026-.645-.076-.887-.042-.25-.116-.452-.225-.602a.821.821 0 0 0-.412-.336 1.653 1.653 0 0 0-.65-.113c-.2 0-.403.021-.611.063-.208.042-.363.08-.463.113v5.199h-1.514V6.05l1.514-.25zM3.912 6.838h6.912v1.361H8.162V15.5H6.574V8.199H3.912V6.838z" fill="#ececec"/></svg>
